source/img/sprite/logo.svg

<svg width="30" height="30" viewBox="0 0 30 30" fill="none" xmlns="http://www.w3.org/2000/svg">
<path d="M0.918425 8.80064C0.0667326 9.40733 -0.432452 10.6921 0.508531 12.2283C1.44951 13.7645 14.8931 24.1336 15.3859 24.4215C15.8789 24.7097 16.3721 24.7576 17.6264 23.7496C18.8813 22.7413 29.3653 14.8656 29.6358 14.6287C30.0663 14.2518 30.1735 13.3325 29.6358 12.9003C29.6358 12.9003 16.9346 22.4052 16.5188 22.7895C16.1031 23.1735 15.4561 22.5495 15.5776 21.7335C15.6996 20.9172 15.7894 20.8211 17.4026 19.5731C19.0158 18.3248 28.1622 11.3928 28.5772 11.0864C29.0471 10.7391 29.0584 10.1258 28.2887 9.58345C27.2185 8.82937 15.6538 0.604729 15.2669 0.316815C14.879 0.0286649 14.3421 -0.233137 13.5356 0.342927C12.7291 0.918991 2.48311 7.68578 0.918425 8.80064Z" fill="#316DC2"/>
<path d="M15.3862 25.4331C15.0627 25.244 9.16427 20.7152 4.87988 17.189V24.5411C4.87656 29.908 19.9972 32.7755 25.0065 26.1779V19.151C21.9292 21.4762 18.3297 24.1963 17.6267 24.7609C16.3724 25.769 15.8792 25.721 15.3862 25.4331Z" fill="#316DC2"/>
<path d="M21.7843 17.3716C21.7843 17.3716 24.0325 18.5019 24.1924 23.0503L23.1032 22.7501L22.2318 24.6012C21.8631 19.6205 19.8555 18.8983 19.8555 18.8983L21.7843 17.3716Z" fill="#98B8E6"/>
</svg>

<svg width="30" height="30" viewBox="0 0 30 30" fill="none" xmlns="http://www.w3.org/2000/svg"><path d="M.918 8.8c-.851.607-1.35 1.892-.41 3.428.942 1.537 14.385 11.906 14.878 12.194.493.288.986.336 2.24-.672 1.255-1.009 11.74-8.884 12.01-9.121.43-.377.538-1.296 0-1.729 0 0-12.701 9.505-13.117 9.89-.416.384-1.063-.24-.941-1.056.122-.817.211-.913 1.825-2.16a2565.5 2565.5 0 0 1 11.174-8.488c.47-.347.481-.96-.288-1.503A5194.72 5194.72 0 0 1 15.267.317c-.388-.288-.925-.55-1.731.026C12.729.919 2.483 7.686.918 8.8Z" fill="#316DC2"/><path d="M15.386 25.433c-.323-.189-6.222-4.718-10.506-8.244v7.352c-.003 5.367 15.117 8.235 20.127 1.637V19.15c-3.078 2.325-6.677 5.045-7.38 5.61-1.255 1.008-1.748.96-2.24.672Z" fill="#316DC2"/><path d="M21.784 17.372s2.248 1.13 2.408 5.678l-1.089-.3-.871 1.851c-.369-4.98-2.377-5.703-2.377-5.703l1.93-1.526Z" fill="#98B8E6"/></svg>
